img/footer__card.svg

<svg width="28" height="20" viewBox="0 0 28 20" fill="none" xmlns="http://www.w3.org/2000/svg">
<path d="M25.754 0.844971H2.17078C0.978202 0.844971 0.0078125 1.81547 0.0078125 3.00805V16.9354C0.0078125 18.128 0.978202 19.0981 2.17078 19.0981H25.754C26.9466 19.0981 27.9167 18.128 27.9167 16.9354V3.00805C27.9167 1.81547 26.9466 0.844971 25.754 0.844971ZM2.17046 1.74327H25.7536C26.4511 1.74327 27.0182 2.31073 27.0182 3.00805V4.00451H0.905693V3.00805C0.906011 2.31031 1.47315 1.74327 2.17046 1.74327ZM27.0184 7.11953H0.906011V4.9025H27.0184V7.11953ZM25.754 18.1996H2.17078C1.47347 18.1996 0.906011 17.6321 0.906011 16.9352V8.01773H27.0184V16.9352C27.0184 17.6323 26.4511 18.1996 25.754 18.1996Z" fill="white"/>
<path d="M4.34859 13.2975C3.48527 13.2975 2.78276 14.0003 2.78276 14.8638C2.78276 15.7267 3.48527 16.429 4.34859 16.429C5.21244 16.429 5.91484 15.7267 5.91484 14.8638C5.91484 14.0003 5.21244 13.2975 4.34859 13.2975ZM4.34859 15.5306C3.98053 15.5306 3.68117 15.2314 3.68117 14.8638C3.68117 14.4954 3.98053 14.1958 4.34859 14.1958C4.71696 14.1958 5.01664 14.4954 5.01664 14.8638C5.01664 15.2314 4.71686 15.5306 4.34859 15.5306Z" fill="white"/>
<path d="M20.3531 14.4676H7.69799C7.44972 14.4676 7.24884 14.6686 7.24884 14.9168C7.24884 15.1649 7.44983 15.3658 7.69799 15.3658H20.3531C20.6014 15.3658 20.8022 15.1649 20.8022 14.9168C20.8022 14.6686 20.6014 14.4676 20.3531 14.4676Z" fill="white"/>
</svg>

<svg width="28" height="20" fill="none" xmlns="http://www.w3.org/2000/svg"><path d="M25.754.845H2.171C.978.845.008 1.815.008 3.008v13.927c0 1.193.97 2.163 2.163 2.163h23.583c1.193 0 2.163-.97 2.163-2.163V3.008c0-1.193-.97-2.163-2.163-2.163zM2.17 1.743h23.584c.697 0 1.264.568 1.264 1.265v.997H.906v-.997c0-.698.567-1.265 1.264-1.265zM27.018 7.12H.906V4.902h26.112V7.12zM25.754 18.2H2.171a1.266 1.266 0 01-1.265-1.265V8.018h26.112v8.917c0 .697-.567 1.265-1.264 1.265z" fill="#fff"/><path d="M4.349 13.297a1.567 1.567 0 101.566 1.567c0-.864-.703-1.567-1.566-1.567zm0 2.234a.668.668 0 110-1.336.668.668 0 010 1.336zm16.004-1.063H7.698a.449.449 0 100 .898h12.655a.449.449 0 100-.898z" fill="#fff"/></svg>
